icons/cache-16.svg

<svg xmlns="http://www.w3.org/2000/svg" width="16" height="16" viewBox="0 0 16 16"><path d="M2.5 5.724V8c0 .248.238.7 1.169 1.159.874.43 2.144.745 3.62.822a.75.75 0 11-.078 1.498c-1.622-.085-3.102-.432-4.204-.975a5.565 5.565 0 01-.507-.28V12.5c0 .133.058.318.282.551.227.237.591.483 1.101.707 1.015.447 2.47.742 4.117.742.406 0 .802-.018 1.183-.052a.751.751 0 11.134 1.494C8.89 15.98 8.45 16 8 16c-1.805 0-3.475-.32-4.721-.869-.623-.274-1.173-.619-1.579-1.041-.408-.425-.7-.964-.7-1.59v-9c0-.626.292-1.165.7-1.591.406-.42.956-.766 1.579-1.04C4.525.32 6.195 0 8 0c1.806 0 3.476.32 4.721.869.623.274 1.173.619 1.579 1.041.408.425.7.964.7 1.59 0 .626-.292 1.165-.7 1.591-.406.42-.956.766-1.578 1.04C11.475 6.68 9.805 7 8 7c-1.805 0-3.475-.32-4.721-.869a6.15 6.15 0 01-.779-.407zm0-2.224c0 .133.058.318.282.551.227.237.591.483 1.101.707C4.898 5.205 6.353 5.5 8 5.5c1.646 0 3.101-.295 4.118-.742.508-.224.873-.471 1.1-.708.224-.232.282-.417.282-.55 0-.133-.058-.318-.282-.551-.227-.237-.591-.483-1.101-.707C11.102 1.795 9.647 1.5 8 1.5c-1.646 0-3.101.295-4.118.742-.508.224-.873.471-1.1.708-.224.232-.282.417-.282.55z"/><path d="M14.49 7.582a.375.375 0 00-.66-.313l-3.625 4.625a.375.375 0 00.295.606h2.127l-.619 2.922a.375.375 0 00.666.304l3.125-4.125A.375.375 0 0015.5 11h-1.778l.769-3.418z"/></svg>

<svg xmlns="http://www.w3.org/2000/svg" width="16" height="16" viewBox="0 0 16 16">
  <defs/>
  <path d="M2.5,5.724 L2.5,8 C2.5,8.248 2.738,8.7 3.669,9.159 C4.543,9.589 5.813,9.904 7.289,9.981 C7.703,10.003 8.021,10.355 7.999,10.769 C7.977,11.183 7.625,11.501 7.211,11.479 C5.589,11.394 4.109,11.047 3.007,10.504 C2.834,10.42 2.664,10.326 2.5,10.224 L2.5,12.5 C2.5,12.633 2.558,12.818 2.782,13.051 C3.009,13.288 3.373,13.534 3.883,13.758 C4.898,14.205 6.353,14.5 8,14.5 C8.406,14.5 8.802,14.482 9.183,14.448 C9.45,14.424 9.71,14.544 9.865,14.763 C10.019,14.982 10.045,15.267 9.932,15.511 C9.819,15.754 9.584,15.919 9.317,15.942 C8.89,15.98 8.45,16 8,16 C6.195,16 4.525,15.68 3.279,15.131 C2.656,14.857 2.106,14.512 1.7,14.09 C1.292,13.665 1,13.126 1,12.5 L1,3.5 C1,2.874 1.292,2.335 1.7,1.909 C2.106,1.489 2.656,1.143 3.279,0.869 C4.525,0.32 6.195,0 8,0 C9.806,0 11.476,0.32 12.721,0.869 C13.344,1.143 13.894,1.488 14.3,1.91 C14.708,2.335 15,2.874 15,3.5 C15,4.126 14.708,4.665 14.3,5.091 C13.894,5.511 13.344,5.857 12.722,6.131 C11.475,6.68 9.805,7 8,7 C6.195,7 4.525,6.68 3.279,6.131 C3.003,6.01 2.741,5.874 2.5,5.724 Z M2.5,3.5 C2.5,3.633 2.558,3.818 2.782,4.051 C3.009,4.288 3.373,4.534 3.883,4.758 C4.898,5.205 6.353,5.5 8,5.5 C9.646,5.5 11.101,5.205 12.118,4.758 C12.626,4.534 12.991,4.287 13.218,4.05 C13.442,3.818 13.5,3.633 13.5,3.5 C13.5,3.367 13.442,3.182 13.218,2.949 C12.991,2.712 12.627,2.466 12.117,2.242 C11.102,1.795 9.647,1.5 8,1.5 C6.354,1.5 4.899,1.795 3.882,2.242 C3.374,2.466 3.009,2.713 2.782,2.95 C2.558,3.182 2.5,3.367 2.5,3.5 Z"/>
  <path d="M14.49,7.582 A0.375 0.375 0 0 0 13.83,7.269 L10.205,11.894 A0.375 0.375 0 0 0 10.5,12.5 L12.627,12.5 L12.008,15.422 A0.375 0.375 0 0 0 12.674,15.726 L15.799,11.601 A0.375 0.375 0 0 0 15.5,11 L13.722,11 L14.491,7.582 Z"/>
</svg>
